icons/2_Variations/RainLoop Webmail bg.var.svg

<svg width="1024" height="1024" viewBox="0 0 1024 1024" fill="none" xmlns="http://www.w3.org/2000/svg">
<g clip-path="url(#clip0_3_236)">
<path d="M512 1024C794.77 1024 1024 794.77 1024 512C1024 229.23 794.77 0 512 0C229.23 0 0 229.23 0 512C0 794.77 229.23 1024 512 1024Z" fill="#56595B"/>
<path d="M256 321.35V387.62C263.92 396.82 273 404.97 281.63 413.4C281.997 398.193 282.33 383 282.63 367.82C329.963 414.84 377.123 462.053 424.11 509.46C378 556.71 330.48 602.61 284.45 650C282.67 628.14 270.16 610.84 256 595.25V697.52H324.88C334.1 689.58 342.25 680.52 350.69 671.84C334.62 671.45 318.53 671.19 302.44 670.84C349.48 623.507 396.667 576.373 444 529.44C463.49 545.27 479.84 566.44 504.34 574.63C537.54 578.63 557.34 547.15 579.15 527.95C625.58 574.64 671.76 621.58 719 667.4C699.59 672.94 683.32 684.61 668.22 697.52H768V633.85C760.09 624.65 751 616.5 742.37 608.07C742.003 623.25 741.67 638.443 741.37 653.65C693.457 606.083 645.743 558.343 598.23 510.43C645.697 463.357 692.953 416.073 740 368.58C740.65 391.58 752.62 410.19 768 426.21V321.35H693.66C684.8 329.55 676.37 338.17 667.88 346.74C685.773 347.213 703.65 347.65 721.51 348.05C666.57 403.66 610.69 458.38 556 514.31C543.93 525.91 532.39 539.02 516.71 545.81C502.87 548.42 492.15 539.15 483.56 530.03C423.947 469.557 363.917 409.477 303.47 349.79C325.31 348.01 342.63 335.5 358.22 321.34H256V321.35ZM429.56 321.35C421.071 329.491 413.022 338.08 405.45 347.08C428.8 344.08 459.05 356.8 476.9 336C482.54 331.19 487.9 326.12 493.62 321.34L429.56 321.35ZM563.02 321.35C554.14 329.66 545.67 338.41 537.19 347.11C558.923 347.29 580.657 347.23 602.39 346.93C610.96 338.31 619.47 329.61 628.39 321.36L563.02 321.35ZM256 459.88V523.78C264.49 532.78 273.42 541.26 282.36 549.78C282.02 530.4 283.69 510.78 281.11 491.53C275 479.47 264.38 470.35 256 459.88ZM741.64 471.71C741.98 491.07 740.31 510.71 742.89 529.96C749.03 541.96 759.61 551.12 767.99 561.59V497.7C759.51 488.72 750.58 480.23 741.64 471.71ZM454.14 670.95C445.626 670.894 437.117 671.401 428.67 672.47C416.67 678.56 407.61 689.19 397.14 697.52H461C470 689.03 478.48 680.1 487 671.16C476.08 671.35 465.08 670.91 454.11 670.95H454.14ZM590.14 671.01C581.581 670.9 573.024 671.377 564.53 672.44C552.53 678.55 543.47 689.18 533 697.52H594.75C604.75 689.34 613.92 680.36 623.22 671.45C612.22 671.57 601.16 671.03 590.14 671.01Z" fill="white"/>
</g>
<defs>
<clipPath id="clip0_3_236">
<rect width="1024" height="1024" fill="white"/>
</clipPath>
</defs>
</svg>

<svg width="1024" height="1024" fill="none" xmlns="http://www.w3.org/2000/svg"><g clip-path="url(#a)"><path d="M512 1024c282.77 0 512-229.23 512-512S794.77 0 512 0 0 229.23 0 512s229.23 512 512 512Z" fill="#56595B"/><path d="M256 321.35v66.27c7.92 9.2 17 17.35 25.63 25.78.367-15.207.7-30.4 1-45.58a25776.054 25776.054 0 0 1 141.48 141.64C378 556.71 330.48 602.61 284.45 650c-1.78-21.86-14.29-39.16-28.45-54.75v102.27h68.88c9.22-7.94 17.37-17 25.81-25.68-16.07-.39-32.16-.65-48.25-1A27229.792 27229.792 0 0 1 444 529.44c19.49 15.83 35.84 37 60.34 45.19 33.2 4 53-27.48 74.81-46.68 46.43 46.69 92.61 93.63 139.85 139.45-19.41 5.54-35.68 17.21-50.78 30.12H768v-63.67c-7.91-9.2-17-17.35-25.63-25.78-.367 15.18-.7 30.373-1 45.58a25908.516 25908.516 0 0 1-143.14-143.22A22571.497 22571.497 0 0 0 740 368.58c.65 23 12.62 41.61 28 57.63V321.35h-74.34c-8.86 8.2-17.29 16.82-25.78 25.39 17.893.473 35.77.91 53.63 1.31C666.57 403.66 610.69 458.38 556 514.31c-12.07 11.6-23.61 24.71-39.29 31.5-13.84 2.61-24.56-6.66-33.15-15.78a18890.753 18890.753 0 0 0-180.09-180.24c21.84-1.78 39.16-14.29 54.75-28.45H256v.01Zm173.56 0a330.076 330.076 0 0 0-24.11 25.73c23.35-3 53.6 9.72 71.45-11.08 5.64-4.81 11-9.88 16.72-14.66l-64.06.01Zm133.46 0c-8.88 8.31-17.35 17.06-25.83 25.76 21.733.18 43.467.12 65.2-.18 8.57-8.62 17.08-17.32 26-25.57l-65.37-.01ZM256 459.88v63.9c8.49 9 17.42 17.48 26.36 26-.34-19.38 1.33-39-1.25-58.25-6.11-12.06-16.73-21.18-25.11-31.65Zm485.64 11.83c.34 19.36-1.33 39 1.25 58.25 6.14 12 16.72 21.16 25.1 31.63V497.7c-8.48-8.98-17.41-17.47-26.35-25.99Zm-287.5 199.24a192.768 192.768 0 0 0-25.47 1.52c-12 6.09-21.06 16.72-31.53 25.05H461c9-8.49 17.48-17.42 26-26.36-10.92.19-21.92-.25-32.89-.21h.03Zm136 .06c-8.559-.11-17.116.367-25.61 1.43-12 6.11-21.06 16.74-31.53 25.08h61.75c10-8.18 19.17-17.16 28.47-26.07-11 .12-22.06-.42-33.08-.44Z" fill="#fff"/></g><defs><clipPath id="a"><path fill="#fff" d="M0 0h1024v1024H0z"/></clipPath></defs></svg>
